symbols/web/tablet_android/materialsymbolsrounded/tablet_android_wght700grad200fill1_24px.svg

<svg xmlns="http://www.w3.org/2000/svg" height="24" width="24"><path d="M10.45 19.775h3.1q.225 0 .375-.163.15-.162.15-.387 0-.2-.15-.363-.15-.162-.375-.162h-3.1q-.225 0-.375.162-.15.163-.15.363 0 .225.15.387.15.163.375.163ZM5.325 24.1q-1.425 0-2.412-1-.988-1-.988-2.4V3.3q0-1.4.988-2.4.987-1 2.412-1h13.35q1.425 0 2.413 1 .987 1 .987 2.4v17.4q0 1.4-.987 2.4-.988 1-2.413 1Zm0-8.575h13.35V6.45H5.325Z"/></svg>

<svg xmlns="http://www.w3.org/2000/svg" height="24" width="24"><path d="M10.45 19.775H13.55Q13.775 19.775 13.925 19.612Q14.075 19.45 14.075 19.225Q14.075 19.025 13.925 18.862Q13.775 18.7 13.55 18.7H10.45Q10.225 18.7 10.075 18.862Q9.925 19.025 9.925 19.225Q9.925 19.45 10.075 19.612Q10.225 19.775 10.45 19.775ZM5.325 24.1Q3.9 24.1 2.913 23.1Q1.925 22.1 1.925 20.7V3.3Q1.925 1.9 2.913 0.9Q3.9 -0.1 5.325 -0.1H18.675Q20.1 -0.1 21.088 0.9Q22.075 1.9 22.075 3.3V20.7Q22.075 22.1 21.088 23.1Q20.1 24.1 18.675 24.1ZM5.325 15.525H18.675V6.45H5.325Z"/></svg>
